!!!OTL: Maoweiyuan laidao sujiapo
!!!ARE: Asia, China, Fujian Shanghang
!! II, 582, 2)
!!!SCT: C2004
!!!YEM: Copyright 1995, estate of Helmut Schaffrath.
**kern
*ICvox
*Ivox
!! Mixed meters:  3/4; 4/4
*M4/4
*k[f#c#]
*D:
{8a
8a
8b
4.ee}
=1
{8ee
16dd
16b
4.a
8b}
=2
{8a
16b
16b
8ee
8dd
8ee
16b
16a
=3
2.b}
=4
{8a
4.a
8b
16a
16a
=5
8b
8a
2ee}
=6
{8a
8b
8ee
16b
16a
4.b
8ee}
=7
{8ee
16b
16a
8a
4.a}
==
!!!AGN: Shange
!!!AMT: irregular
!!!AIN: vox
!!!EED: Helmut Schaffrath
!!!EEV: 1.0
*-
